X: 185
T:Homoljanka Kolo
O:Serbia
F: http://www.youtube.com/watch?v=K9hITDGBc7E
M:2/4
L:1/8
Q:1/4=200
K:C
%%MIDI program 72
%%MIDI transpose 12
|: g>f gf     | eceG     | G<c c<d   | c c>e g |
   g>f gf     |eceG      | G<c c<d   | c c>B c :|
K:F
|: B>d B>d    | B>d (3Bcd| f>c (3cBA | G>F FA  |
   c>c (3cBA  | G>F FA   |c2 Gc      | G2 G2   :|
|: (3FGA (3cBA|G>F A>F   | (3cBA G>F |A>F A>F  | (3cBA (3cBA|
   G>F A>F    | c2 Gc    |G2 G2      :|



